X:1
T:Wirth, CM
T:Wirth, CM
T:William Batchelder Bradbury (1816-1868)
T:Public Domain Courtesy of the Cyber Hymnal™
C:William Batchelder Bradbury (1816-1868)
Z:Public Domain
Z:Courtesy of the Cyber Hymnal™
%%score ( 1 2 ) ( 3 4 )
L:1/8
Q:1/4=95
M:3/4
K:Ab
V:1 treble 
V:2 treble 
V:3 bass 
V:4 bass 
V:1
 [CE]2 | [CE][EA] [Ec][EA] [DA][DF] | [CE]4 [EA]2 | [EG][EA] [EB]2 [EA]2 | (A2 G2) E2 | %5
 [Ec][Ec] [Fd][Fd] [Ec][EA] | ([FA][EG] [GB][FA]) ([EG][DF]) | E[CA] [EA]2 [DG]2 | [CA]4 |] %9
V:2
 x2 | x6 | x6 | x6 | E4 E2 | x6 | x6 | E x5 | x4 |] %9
V:3
 [A,,A,]2 | [A,,A,][A,,C] [A,,A,][A,,A,] [D,F,][D,A,] | [A,,A,]4 [A,,C]2 | %3
 [E,B,][E,C] [E,D]2 [E,C]2 | (C2 B,2) [E,G,]2 | A,A, A,A, A,[C,A,] | [D,A,]4 [D,A,]2 | %7
 [C,A,][A,,E,] [E,C]2 [E,B,]2 | [A,,A,]4 |] %9
V:4
 x2 | x6 | x6 | x6 | E,4 x2 | A,A, A,A, A, x | x6 | x6 | x4 |] %9

